X: 32808
T: Pop Goes The Weasel
R: jig
M: 6/8
K: Gmajor
D|G2 B A2 c|BdB G2 D|G2 B A2 c|BcB G2 D|
G2 B A2 c|BdB G3|e2 d A2 c|B3 G2 D|
G2 B A2 c|BdB G2 D|G2 B A2 c|B3 G2 D|
G2 B A2 c|BdB G3|.e z2 A2 c|BcB G3||
g2 f e2 g|faf d3|g2 f e2 g|fgf d3|
c2 B c2 d|e2 f g3|.e2 z A2 c|B3 G3|
g2 f e2 g|faf d3|g2 f e2 g|fgf d3|
c2 B c2 d|e2 c g2 e|d2 B A2 c|BcB G2||

